svg/system/version_fill.svg

<?xml version="1.0" encoding="UTF-8"?>
<svg width="24px" height="24px" viewBox="0 0 24 24" version="1.1" xmlns="http://www.w3.org/2000/svg" xmlns:xlink="http://www.w3.org/1999/xlink">
    <title>version_fill</title>
    <g id="页面-1" stroke="none" stroke-width="1" fill="none" fill-rule="evenodd">
        <g id="System" transform="translate(-1488.000000, -48.000000)" fill-rule="nonzero">
            <g id="version_fill" transform="translate(1488.000000, 48.000000)">
                 <path d="M24,0 L24,24 L0,24 L0,0 L24,0 Z M12.5934901,23.257841 L12.5819402,23.2595131 L12.5108777,23.2950439 L12.4918791,23.2987469 L12.4918791,23.2987469 L12.4767152,23.2950439 L12.4056548,23.2595131 C12.3958229,23.2563662 12.3870493,23.2590235 12.3821421,23.2649074 L12.3780323,23.275831 L12.360941,23.7031097 L12.3658947,23.7234994 L12.3769048,23.7357139 L12.4804777,23.8096931 L12.4953491,23.8136134 L12.4953491,23.8136134 L12.5071152,23.8096931 L12.6106902,23.7357139 L12.6232938,23.7196733 L12.6232938,23.7196733 L12.6266527,23.7031097 L12.609561,23.275831 C12.6075724,23.2657013 12.6010112,23.2592993 12.5934901,23.257841 L12.5934901,23.257841 Z M12.8583906,23.1452862 L12.8445485,23.1473072 L12.6598443,23.2396597 L12.6498822,23.2499052 L12.6498822,23.2499052 L12.6471943,23.2611114 L12.6650943,23.6906389 L12.6699349,23.7034178 L12.6699349,23.7034178 L12.678386,23.7104931 L12.8793402,23.8032389 C12.8914285,23.8068999 12.9022333,23.8029875 12.9078286,23.7952264 L12.9118235,23.7811639 L12.8776777,23.1665331 C12.8752882,23.1545897 12.8674102,23.1470016 12.8583906,23.1452862 L12.8583906,23.1452862 Z M12.1430473,23.1473072 C12.1332178,23.1423925 12.1221763,23.1452606 12.1156365,23.1525954 L12.1099173,23.1665331 L12.0757714,23.7811639 C12.0751323,23.7926639 12.0828099,23.8018602 12.0926481,23.8045676 L12.108256,23.8032389 L12.3092106,23.7104931 L12.3186497,23.7024347 L12.3186497,23.7024347 L12.3225043,23.6906389 L12.340401,23.2611114 L12.337245,23.2485176 L12.337245,23.2485176 L12.3277531,23.2396597 L12.1430473,23.1473072 Z" id="MingCute" fill-rule="nonzero"></path>
                <path d="M20.2451,14.75 C21.18,15.3637 21.1371,16.7868 20.1165,17.3263 L12.9348,21.1225 C12.35,21.4316 11.6503,21.4316 11.0655,21.1225 L3.88381,17.3263 C2.86325,16.7868 2.82034,15.3638 3.75508,14.75 L3.817995,14.7892 L3.817995,14.7892 L11.0654,18.6222 C11.6502,18.9313 12.35,18.9313 12.9347,18.6222 L20.1164,14.826 C20.1612,14.8023 20.2041,14.7769 20.2451,14.75 Z M20.2451,10.75 C21.1393522,11.3370174 21.138982,12.6645822 20.2440771,13.2510586 L20.1165,13.3263 L12.9348,17.1225 C12.4031636,17.4035 11.7765686,17.4290455 11.227667,17.1991364 L11.0655,17.1225 L3.88381,13.3263 C2.86325,12.7868 2.82034,11.3638 3.75508,10.75 L3.817995,10.7892 L3.817995,10.7892 L11.0654,14.6222 C11.5970364,14.9032 12.223714,14.9287455 12.7725555,14.6988364 L12.9347,14.6222 L20.1164,10.826 C20.1612,10.8023 20.2041,10.7769 20.2451,10.75 Z M12.9347,2.87782 L20.1164,6.67404 C21.1818,7.23718 21.1818,8.76316 20.1164,9.32629 L12.9347,13.1225 C12.35,13.4316 11.6502,13.4316 11.0654,13.1225 L3.88373,9.32629 C2.81838,8.76315 2.81838,7.23718 3.88373,6.67404 L11.0654,2.87782 C11.6502,2.56872 12.35,2.56872 12.9347,2.87782 Z" id="形状" fill="#09244B"></path>
            </g>
        </g>
    </g>
</svg>

<svg xmlns="http://www.w3.org/2000/svg" width="24" height="24"><g fill="none" fill-rule="nonzero"><path d="M24 0v24H0V0h24ZM12.593 23.258l-.011.002-.071.035-.02.004-.014-.004-.071-.035c-.01-.004-.019-.001-.024.005l-.004.01-.017.428.005.02.01.013.104.074.015.004.012-.004.104-.074.012-.016.004-.017-.017-.427c-.002-.01-.009-.017-.017-.018Zm.265-.113-.013.002-.185.093-.01.01-.003.011.018.43.005.012.008.007.201.093c.012.004.023 0 .029-.008l.004-.014-.034-.614c-.003-.012-.01-.02-.02-.022Zm-.715.002a.023.023 0 0 0-.027.006l-.006.014-.034.614c0 .012.007.02.017.024l.015-.002.201-.093.01-.008.004-.011.017-.43-.003-.012-.01-.01-.184-.092Z"/><path fill="#09244B" d="M20.245 14.75c.935.614.892 2.037-.129 2.576l-7.181 3.796a2 2 0 0 1-1.87 0l-7.181-3.796c-1.02-.54-1.064-1.962-.129-2.576l.063.04 7.247 3.832a2 2 0 0 0 1.87 0l7.181-3.796a1.59 1.59 0 0 0 .13-.076Zm0-4a1.5 1.5 0 0 1 0 2.501l-.129.075-7.181 3.796a2 2 0 0 1-1.707.077l-.162-.077-7.182-3.796c-1.02-.54-1.064-1.962-.129-2.576l.063.04 7.247 3.832a2 2 0 0 0 1.708.077l.162-.077 7.181-3.796a1.59 1.59 0 0 0 .13-.076Zm-7.31-7.872 7.181 3.796c1.066.563 1.066 2.09 0 2.652l-7.181 3.797a2 2 0 0 1-1.87 0L3.884 9.326c-1.066-.563-1.066-2.089 0-2.652l7.181-3.796a2 2 0 0 1 1.87 0Z"/></g></svg>
